X:137
T:Inte s\"orjer jag f\"or barnen di \"ar sm{\aa}
R:sl\"angpolska
H:jfr #53. I boken \"ar den i Cm.
A:Sm{\aa}land
B:Svenska folkvisor, Topelius bokf\"orlag 1978
Z:id:hn-sp-137
M:3/4
L:1/16
K:Dm
A2A2 F2F2 G2G2 | A2A2 ^c2c2 d4 |
w:In-te s\"or-jer jag f\"or barn-en de \"a' sm{\aa},
=c2cB A2AB c2A2 | cBGB B2A2 A4 :|
w:Hopp fal-le-ral-lal-le-ra fal-lal-le-ral-le-ra-la-la.
|: A2A2 A2GA B2A2 | A2G2 G2FG A2F2 |
w:Hus-tru min \"ar_ sn\"al-ler, fast-\"an barn-et_ gn\"al-ler,
A2A2 A2GA B2A2 | A2G2 AGFG F4 :|
w:n\"ar det sen blir_ kv\"al-ler slum-ra al_la_ s\"ott.
W:2. Inte s\"orjer jag, f\"or kassan \"ar s{\aa} tom, hopp fallerallalera fallallerallerallala.
W:Inte r{\aa}r jag f\"or att p{\aa}ven bor i Rom, hopp fallerallalera fallallerallerallala.
W:Han har m{\aa}nga pengar, feta, lata dr\"angar,
W:som i mjuka s\"angar slumra in s{\aa} s\"ott.
W:3. Inte s\"orjer jag f\"or \"angen bliver gr\"on, hopp fallerallalera fallallerallerallala.
W:D\"ar \"ar gr\"aset mjukt och lilla blomman sk\"on, hopp fallerallalera fallallerallerallala.
W:D\"ar ska vi spatsera, jag och barnen flera.
W:D\"ar ska vi regera, sedan slumra s\"ott.
W:4. Inte s\"orjer jag f\"or visan ej \"ar l{\aa}ng, hopp fallerallalera fallallerallerallala.
W:Barnet sjunger v\"al en l\"angre n{\aa}gon g{\aa}ng, hopp fallerallalera fallallerallerallala.
W:Sen jag livets grader genomg{\aa}tt s{\aa} glader,
W:vill jag be gud fader att f{\aa} slumra s\"ott.
W:
<end>
<start>
